X: 1129
T: Hüzzam Taksim
C: Tanburî Cemil Bey
O: Turkey
F: http://compmusic.upf.edu/node/140
N: huzzam--taksim--serbest----tanburi_cemil_bey
N: makam= huzzam
N: form= taksim
N: usul= serbest = 0/1
M: 0/1
L: 1/16
K: C _1/4B _3/4e ^3/4f 
Q: 1/4=72
%%MIDI tuningsystem comma53
c3/2 d/ c2 d8 d2 _7/8e d  | c d4 d8 d c/ d8 d _7/8e ^f g a/ _b/ a/ g/ g2 f2 e2 d2 d2 f4 e d e f4 f2 g2 f2 g2 g2 g2 f e f g f e f f e/ d/ d4 z4 c d e f2 g2 a2 g2 f e f e f4 f4 d f4 f8 g3/2 f/ e d z4 c/ d/ c/ d/ c/ d e d  | 
w:   |   | 
d ^f _7/8e f2 f/ g/ f/ =e/ f2 _7/8e4 d4 B4 c4 d4 d c3 c/ c/ c/ B/ B A B8 z4 z4 z4 g f g f g f g  | 
w:   | 
a _b b b b g ^f f g2 a2 g f g a  | \
w:   | 
g ^f _7/8e/ e/ e/ d/ e f e4 f2 f4  | 
w:   | 
g/ a/ g/ ^f/ g/ _7/8e/ d4 z4 d2 g2 f2 e2 d2 d2 a2 a/ g3/2 g/ f3/2 g3/2 f/ e  | 
w:   | 
^f _7/8e e d2 d2 d3/2 c/ B/ A/ B B2 c d e  | \
w:   | 
^f3/2 _7/8e/ d2 c3 d d8  | d8 d8  | 
w:   |   | 
d8 d8  | d8 B B2 d c2 d2  | d c2 B ^A3/4 B/ c d c/ B3/2 A/ G3/2 A4 B4 c4 d4 z4 d c B B c2 B _7/8e e d c B c/ d/ c e2 c e2 c e4 d2 c2 d8 d8 z4 z4 d4 z2 g ^f g f g a _b c' b3/2 a/ g2 f2 f2 g3/2 f/ e f e g4 f e d2 z2 d e f2 e d g f e a g f e d c d e d f e g f e d2 z2 d3/2 f2 c/ d c d2 d4 d8 d8 d4 z4 B2 =A2 B c d e f g a f e d d c B/ A/ B B c B c d e/ f/ c B d c e2 c e2 c e2 c c4 c4 B2 e4 d c c c c B B8 z4 z4 g3/4 f1/4 ^e/ f/ g a b g3/2 f/ g4 g4 g4 g4 g4 g4 g/ a/ g/ f/ g2 g4 e f g/ g/ f g4 e f g f g a b/ b g/ g f g f/ e f e f g f g a2 g f g g a a _1/4b b c' c' b b a2 a2 f _7/8e f e e f _b4 g f g a2 g a2 g a2 a g4 f/ e/ f3 z4 z4 g f g a _1/4b d' c' b a _b3/2 a/ g a a/ g/ g f g f g f g f g a a/ g/ f g f e/ d/ e f3 e e/ d/ e f3 e e/ d/ e g g g f f2 f4 f4 a2 g2 g4 g/ f/ f2 g3/2 f/ e f3/2 e/ f f g3 f e d f3 e2 g2 f2 e2 d2 a2 a g g2 f2 g2 g f e2 f2 f3/2 g/ f2 g4 f2 e6 d2 z4 z2 d/ e/ f/ g/ a/ b/ a/ g/ g/ g/ g/ f/ g4 g4 g4 g/ f/ g/ a/ g/ f/ e/ d/ c4 d e d2 e f e2 f g f2 a2 g f g2 g f d2 f e3 d e d2 g f g/ f/ e f3/2 e/ d3/2 c/ B/ c/ B B2 c2 B/ A/ B c d e f g a _1/4b c' c'2 c' b a/ g/ f e d3/2 c/ B A B g f e d/ e/ d B4 d2 c3/2 B/ ^A B A6 G2 c/ B/ c/ B/ B4 z4 z4 |
w:   |   |   | 


